X: 22290
T: La Ponentina
R: polka
M: 2/4
K: Aminor
A>B ce-|ed cB|A>B cf-|fe dc|
B>c dB|e>d cB|A>B cB-|1 BA ^GE:|2 B3e||
|:f>d gf|ed cd|^de^GA-|AB ce|
f>d gf|ed cd|1 ^d2 de-|e3e:|2 ^d2 de-|ed cB||

